!!!COM: Beethoven, Ludwig van
!!!CDT: 1770///-1827///
!!!OTL: Piano Sonata no. 28 in A major
!!!OPS: 101
!!!OMV: 3
!!!OMD: Adagio ma non troppo con affetto
**kern	**kern	**dynam
*staff2	*staff1	*staff1/2
*clefF4	*clefG2	*clefG2
*k[]	*k[]	*k[]
*a:	*a:	*a:
*M2/4	*M2/4	*M2/4
*MM60	*MM60	*MM60
=1-	=1-	=1-
*	*^	*
(8GGG#/ 8GG#/L	4e/	(8B\L	pp
8BBB/ 8BB/J	.	8d\J	.
4AAA/) 4AA/	16e/LL	(4c\)	.
.	48f/L	.	.
.	48e/	.	.
.	48d#/J)	.	.
.	16e/	.	.
.	&(16cc/JJ&)	.	.
=2	=2	=2	=2
(8BBB/ 8BB/L	(8.g#/L	4e\	.
8DD/ 8D/	.	.	.
.	32b/LL	.	.
.	32a/JJJ)	.	.
8CC/ 8C/	(8a/L	8e\L	.
8AAA/) 8AA/J	8cc/ 8ee/J)	8e\J	.
=3	=3	=3	=3
(8.FF/ 8.F/L	(8ee/L	8e\ [8a\L	.
.	16dd/L	16d\ 16a\L]	.
16EE/ 16E/Jk	16cc#/ 16ee/JJ	16e\ 16g\JJ	.
8.DD/ 8.D/L	8f/ 8a/ 8dd/ 8ff/L	4r	.
.	16B-/ 16f/ 16b-/L	.	.
16CC/) 16C/Jk	16cn/ 16e/ 16a/JJ)	.	.
=4	=4	=4	=4
*^	*	*	*
(8BBB/ 8BB/L	4r	(8g#/L	8d\ 8e\L	.
8AAA/) 8AA/J	.	16a/L	8c\ 8e\J	.
.	.	16cc/JJ	.	.
4EE/	4EEE\	16ee/LL	32cc\LLL	.
.	.	.	32e\J	.
.	.	16cc/J	16a\	.
.	.	8bn/J)	16g#\	.
.	.	.	16gn\JJ	.
*v	*v	*	*	*
*	*v	*v	*
=5	=5	=5
(8EE/ 8E/L	8e\ 8g\ (8b\L	<
8DD/ 8D/	8f\ 8b\ 8gg\	.
8CC/ 8C/	8g\ 8cc\ 8ee\ 8gg\	.
8BBB-/ 8BB-/J	8cc\ 8ee\ 8gg\ 8ccc\J)	.
=6	=6	=6
8AAA/ 8AA/L	8cc\ 8ff\ 8ccc\L	.
8AAA-/ 8AA-/J	8ff\ 8ccc\ &(8fff\J&)	.
4GGG/) 4GG/	8.ff\ 8.bb\ 8.ddd\ 8.fff\	.
.	16D/ 16F/ 16B/	pp
=7	=7	=7
*^	*	*
8D/ 8F/ (8B/L	4.GGG\ 4.GG\	2r	.
8E/ 8G/ 8c#/	.	.	.
8F/ 8A/ 8d/	.	.	.
16G/ 16cn/L	16GG\ 16E\LL	.	.
16G/ 16B/JJ)	16FF\ 16D\JJ	.	.
=8	=8	=8	=8
*	*	*^	*
8E/L	8EE\L	8G/ 8c/ (8g/L	8r	.
8D/J	16DD\L	16.A/ 16.a/L	8f\	.
.	16GG\JJ	.	.	.
.	.	32B/ 32b/JJk)	.	.
(8GG/ 8D/L	4r	8B/ 8f/ (8b/L	4r	.
16CC/) 16C/Jk	.	&(16c/&) 16e/ 16cc/Jk)	.	.
16r	.	16r	.	.
*v	*v	*	*	*
*	*v	*v	*
=9	=9	=9
4GG/	2r	.
(16GG/LL	.	.
48AA/L	.	.
48GG/	.	.
&(48FF#/J&)	.	.
16GG/	.	.
16E/JJ)	.	.
=10	=10	=10
*^	*^	*
4G/	8BB\L	4g/	(8d\L	.
.	&(8D\J&)	.	8f\J)	.
4r	4C\ 4G\	(16g/LL	8e\	.
.	.	48a/L	.	.
.	.	48g/	.	.
.	.	&(48f#/JJJ&)	.	.
.	.	16g/)	8r	.
.	.	16ee\ 16gg\ (16eee\	.	.
*v	*v	*	*	*
*	*v	*v	*
=11	=11	=11
4G\	8b\ 8dd\ 8bb\L	.
.	8dd\ 8ff\ 8ddd\	.
(16G\LL	8cc\ 8ee\ 8ccc\J)	.
48A\L	.	.
48G\	.	.
&(48F#\J&)	.	.
16G\	8r	.
16e\JJ)	.	.
=12	=12	=12
4e\	(16gg\LL	.
.	48aa\L	.
.	48gg\	.
.	&(48ff#\J&)	.
.	16gg\	.
.	16eee\JJ)	.
(16G\LL	4eee\	.
48A\L	.	.
48G\	.	.
&(48F#\J&)	.	.
16G\	.	.
16e\JJ)	.	.
=13	=13	=13
(BBq/	.	.
4e\)	(16gg\LL	.
.	48aa\L	.
.	48gg\	.
.	&(48ff#\J&)	.
.	16gg\	.
.	16eee\JJ)	.
(16G\LL	8.eee\L	.
48A\L	.	.
48G\	.	.
&(48F#\J&)	.	.
16G\	.	.
16e\JJ)	16gg\Jk	.
=14	=14	=14
*^	*	*
(16e\LL	4r	[8gg\	.
16c#\	.	.	.
16A#\	.	32gg\LLL]	.
.	.	(96aa\L	.
.	.	96gg\	.
.	.	&(96ff#\J&)	.
16G\JJ)	.	32gg\	.
.	.	32eee\JJJ)	.
8AAn\	(16F#/LL	(16eee\LL	.
.	16An/	16ff#\ 16ccc\ 16ddd#\JJ)	.
8r	16cn/	16f#/ 16a/ 16dd#/	.
.	16d#/JJ)	16r	.
=15	=15	=15	=15
.	.	(fnq/LL	.
.	.	bq/	.
.	.	ddnq/JJ	.
(16dn\LL	4r	[8ff\)	.
16B\	.	.	.
16G#\	.	32ff\LLL]	.
.	.	(96gg\L	.
.	.	96ff\	.
.	.	96ee\J	.
16Fn\JJ)	.	32ff\)	.
.	.	&(32ddd\JJJ&)	.
8GGn\	(16En/LL	(16ddd\LL	.
.	16Gn/	16ee\ 16bb-\ 16ccc#\JJ)	.
8r	16B-/	16e/ 16g/ 16cc#/	.
.	16c#/JJ)	16r	.
=16	=16	=16	=16
(16cn\LL	4r	[8dd#\	.
16A\	.	.	.
16F#\	.	32dd#\LLL]	.
.	.	(96bb\L	.
.	.	96aa\	.
.	.	96gg#\JJJJ	.
16D#\JJ)	.	(48aa\LLL)	.
.	.	48cc\	.
.	.	48ccc\JJJ)	.
8FFn\	(16Dn/LL	(16ccc\LL	.
.	16Fn/	16ddn\ 16gg#\ 16bb\JJ)	.
8r	16G#/	16d/ 16fn/ 16b/	.
.	16B/JJ)	16r	.
=17	=17	=17	=17
(16D/LL	8EE\	8b\ 8gg#\ 8bb\L	.
16E/	.	.	.
16G#/	8r	[8b\ [8dd\ [8bb\J	.
16B/JJ)	.	.	.
(16C/LL	8EE\	16b\] 16dd\] 16bb\LL]	.
16E/	.	16a\ 16cc\ 16aa\	.
16G#/	8r	16e'\ 16cc'\ (16ee'\	.
16A/JJ)	.	16e'\ 16cc'\ 16ee'\JJ)	.
=18	=18	=18	=18
16BB/LL	8EE\	8e/ 8cc/ 8ee/L	.
16D/	.	.	.
16E/	8r	[8d/ [8b/ [8dd/J	.
16G#/JJ	.	.	.
16AA/LL	8EE\	16d/] 16b/] 16dd/LK]	.
16C/	.	8c/ 8a/ 8cc/	.
16D#/	8r	.	.
16E/JJ	.	16c/ 16a/ 16cc/Jk	.
=19	=19	=19	=19
16FF#/LL	[4EE\	[4c/ [4d#/ [4f#/ [4a/ [4cc/	.
16AA/	.	.	.
16C/	.	.	.
16D#/JJ	.	.	.
16F#/LL	8.EE\L]	16c/] 16d#/] 16f#/] 16a/] 16cc/LL]	.
16A/	.	16c/ 16d#/ 16f#/ 16a/ 16cc/	.
16c/	.	16d#/ 16f#/ 16a/	.
16B/JJ	16EE\ 16GG#\ 16BB\ 16E\Jk	16e/ 16g#/JJ	.
*v	*v	*	*
=20	=20	=20
4EE\ 4GG#\ 4BB\ 4E\	4E/ 4G#/ 4B/ 4e/ (4g#/	p
=21	=21	=21
*k[f#c#g#]	*k[f#c#g#]	*k[f#c#g#]
*M6/8	*M6/8	*M6/8
*^	*	*
.	.	g#q/L)	.
.	.	eq/	.
.	.	d#q/	.
.	.	eq/	.
.	.	g#q/J	.
.	.	bq/L	.
.	.	g#q/	.
.	.	f##q/	.
.	.	g#q/	.
.	.	bq/J	.
.	.	eeq\L	.
.	.	bq\	.
.	.	a#q\	.
.	.	bq\	.
.	.	eeq\J	.
.	.	gg#q\L	.
.	.	eeq\	.
.	.	dd#q\	.
.	.	eeq\	.
.	.	gg#q\J	.
.	.	bbq\L	.
.	.	ff##q\	.
.	.	gg#q\	.
.	.	bbq\	.
.	.	dd#q\	.
.	.	eeq\	.
.	.	gg#q\	.
.	.	a#q\	.
.	.	bq\	.
.	.	eeq\	.
.	.	f##q\	.
.	.	g#q\	.
.	.	bq\	.
.	.	d#q\	.
.	.	eq\	.
.	.	g#q\	.
.	.	eq\	.
.	.	Bq\	.
.	.	G#q\	.
.	.	Eq\J	.
.	.	G#q/LL	.
.	.	Bq/	.
.	.	eq/JJ	.
*	*	*^	*
4E/	[2.EE\	(4g#/	8e\L	p
.	.	.	8B\	.
8D#/	.	8a/	8f#\J	.
4Dn/	.	4b/	8g#\L	p
.	.	.	8e\	.
&(8C#/&)	.	8cc#/	[8a\J	p
=22	=22	=22	=22	=22
4.BB/	4.EE\_	4ee/	8a\L]	.
.	.	.	8f#\	.
.	.	8dd/	8b\J	.
&(8E/&)	8EE\]	8b/)	8g#\	.
8r	8r	8r	8r	.
8r	8r	8a/	([8a\	.
=23	=23	=23	=23	=23
4f#/	4r	4aa/	8a\]	.
.	.	.	[4a\	.
8e/	8r	8gg#/	.	.
4d/	4.A\	4ff#/	8a\]	.
.	.	.	[4a\	.
&(8c#/&)	.	8ee/	.	.
=24	=24	=24	=24	=24
[4.c#/	4C#\	4ff#/	8a\]	.
.	.	.	[4a\	.
.	8D\	[8ee/)	.	.
(8c#/L]	4.E\	(8ee/L]	8a\L]	.
8A/	.	8cc#/	8e\	.
8G#/J)	.	8b/J)	8e\J	.
=25	=25	=25	=25	=25
4r	4.r	4r	4.r	.
[8c#/	.	[8ee/	.	.
(8c#/L]	4.E\	(8ee/L]	4.e\	.
8A/	.	8cc#/	.	.
8G#/J)	.	8b/J)	.	.
*v	*v	*	*	*
*	*v	*v	*
=26	=26	=26
4r	4r	.
[8d\	[8ff#\	.
(8d\L]	8f#\ (8ff#\L]	.
8B\	8dd\	.
8A\J)	8cc#\J)	.
*clefG2	*	*
=27	=27	=27
(8f#/L	8a\ (8aa\L	.
8d/	8ff#\	.
8c#/J)	8ee\J)	.
(8a/L	8cc#\ (8ccc#\L	.
8f#/	8aa\	.
8e/J)	8gg#\J)	.
=28	=28	=28
*M7/4	*M7/4	*M7/4
4e/ 4g#/ 4b/ 4dd/	36ee\ 36eee\LLL	f
.	36ddd#\	.
.	36dddn\	.
.	36ccc#\	.
.	36bb\	.
.	36aa\	.
.	36gg#\	.
.	36ff#\	.
.	36ee\JJJ	.
2r;	2ddn;\	p
2r;	2dd#;\	.
2r;	2ee;\	.
=	=	=
*-	*-	*-
!!!ENC: Craig Stuart Sapp
!!!END: 2008/11/04/
